X: 20354
T: The Sisters
C: Copyright.
Q: "Waltz time."
%R: waltz
B: W. Hamilton "Universal Tune-Book" Vol. 2 Glasgow 1846 p.35 #4
S: http://s3-eu-west-1.amazonaws.com/itma.dl.printmaterial/book_pdfs/hamiltonvol2web.pdf
Z: 2016 John Chambers <jc:trillian.mit.edu>
M: 3/4
L: 1/4
K: D
% - - - - - - - - - - - - - - - - - - - - - - - - -
A |\
(dc)d | (b2a) | (dc)d | (g2f) |\
(g2f) | (b2a) | (g2e) | (f2d) |\
(AF)A | (B2A) | (DE)F | (G2F) |\
(GA)B | (A2d) | (e2c) | d2 |]
(A/G/) |\
(FG)F | (E2D)| (AB)A | (G2F) |\
(B2A) | (d2c) |(e2c) | (A2d) |\
(f2d) | (e2A) | (B2d) | (A2F) |\
(G/A/)(B/c/)(d/e/)| (f2a) | (g2c) | d2 |]
% - - - - - - - - - - - - - - - - - - - - - - - - -

%%sep 1 1 500
%%sep 1 1 500

